pix_core/e/split_cells.svg

<svg fill="none" preserveAspectRatio="xMinYMid meet" viewBox="0 0 19 18" xmlns="http://www.w3.org/2000/svg"><g fill="#fff"><path d="m8.02153 2.74968c0-.99412-.80588-1.800003-1.8-1.800003h-4.04193c-.99411 0-1.799997.805883-1.799997 1.800003v2.21677h1.599997v-2.21677c0-.11046.08955-.2.2-.2h4.04193c.11046 0 .2.08954.2.2v5.45028h-3.69011l.64985-.64986c.31242-.31242.31242-.81895 0-1.13137s-.81895-.31242-1.13137 0l-2.015586 2.01559c-.3124187.31242-.3124187.81895 0 1.13137l2.015586 2.01561c.31242.3124.81895.3124 1.13137 0s.31242-.819 0-1.1314l-.64995-.64994h3.69021v5.45034c0 .1105-.08954.2-.2.2h-4.04193c-.11045 0-.2-.0895-.2-.2v-2.2168h-1.599997v2.2168c0 .9941.805887 1.8 1.799997 1.8h4.04193c.99412 0 1.8-.8059 1.8-1.8z"/><path d="m10 2.74968c0-.99412.8059-1.800003 1.8-1.800003h4.042c.9941 0 1.8.805883 1.8 1.800003v2.21677h-1.6v-2.21677c0-.11046-.0896-.2-.2-.2h-4.042c-.1104 0-.2.08954-.2.2v5.45028h3.6902l-.6499-.64986c-.3124-.31242-.3124-.81895 0-1.13137s.819-.31242 1.1314 0l2.0156 2.01559c.3124.31242.3124.81895 0 1.13137l-2.0156 2.01561c-.3124.3124-.819.3124-1.1314 0s-.3124-.819 0-1.1314l.65-.64994h-3.6903v5.45034c0 .1105.0896.2.2.2h4.042c.1104 0 .2-.0895.2-.2v-2.2168h1.6v2.2168c0 .9941-.8059 1.8-1.8 1.8h-4.042c-.9941 0-1.8-.8059-1.8-1.8z"/></g></svg>

<svg viewBox="0 0 19 18" fill="none" xmlns="http://www.w3.org/2000/svg" preserveAspectRatio="xMinYMid meet">
<path  d="M8.02153 2.74968C8.02153 1.75556 7.21565 0.949677 6.22153 0.949677H2.1796C1.18549 0.949677 0.379603 1.75556 0.379603 2.74968V4.96645H1.9796V2.74968C1.9796 2.63922 2.06915 2.54968 2.1796 2.54968H6.22153C6.33199 2.54968 6.42153 2.63922 6.42153 2.74968V8.19996H2.73142L3.38127 7.5501C3.69369 7.23768 3.69369 6.73115 3.38127 6.41873C3.06885 6.10631 2.56232 6.10631 2.2499 6.41873L0.234314 8.43432C-0.0781047 8.74674 -0.0781047 9.25327 0.234314 9.56569L2.2499 11.5813C2.56232 11.8937 3.06885 11.8937 3.38127 11.5813C3.69369 11.2689 3.69369 10.7623 3.38127 10.4499L2.73132 9.79996H6.42153V15.2503C6.42153 15.3608 6.33199 15.4503 6.22153 15.4503H2.1796C2.06915 15.4503 1.9796 15.3608 1.9796 15.2503V13.0335H0.379603V15.2503C0.379603 16.2444 1.18549 17.0503 2.1796 17.0503H6.22153C7.21565 17.0503 8.02153 16.2444 8.02153 15.2503V2.74968Z" fill="#fff"/>
<path  d="M10 2.74968C10 1.75556 10.8059 0.949677 11.8 0.949677H15.842C16.8361 0.949677 17.642 1.75556 17.642 2.74968V4.96645H16.042V2.74968C16.042 2.63922 15.9524 2.54968 15.842 2.54968H11.8C11.6896 2.54968 11.6 2.63922 11.6 2.74968V8.19996H15.2902L14.6403 7.5501C14.3279 7.23768 14.3279 6.73115 14.6403 6.41873C14.9527 6.10631 15.4593 6.10631 15.7717 6.41873L17.7873 8.43432C18.0997 8.74674 18.0997 9.25327 17.7873 9.56569L15.7717 11.5813C15.4593 11.8937 14.9527 11.8937 14.6403 11.5813C14.3279 11.2689 14.3279 10.7623 14.6403 10.4499L15.2903 9.79996H11.6V15.2503C11.6 15.3608 11.6896 15.4503 11.8 15.4503H15.842C15.9524 15.4503 16.042 15.3608 16.042 15.2503V13.0335H17.642V15.2503C17.642 16.2444 16.8361 17.0503 15.842 17.0503H11.8C10.8059 17.0503 10 16.2444 10 15.2503V2.74968Z" fill="#fff"/>
</svg>
